!!!COM: Beethoven
!!!OTL: 13 Variationen uber "Es war einmal ein alter Mann" aus "Das rote Kappchen" von K. Ditters von Dittersdorf
!!!Variation: 4 d
**kern	**harm	**kern	**kern	**kern
*M2/4	*M2/4	*staff3	*staff2	*staff1
*	*	*clefF4	*clefF4	*clefG2
*	*	*k[f#c#g#]	*k[f#c#g#]	*k[f#c#g#]
*	*	*M2/4	*M2/4	*M2/4
*	*	*A:	*A:	*A:
8D	8V6	8BJ	8r	8bb'
=	=	=161	=161	=161
4D	4I	16ALL	2r	(4cc#
.	.	16e	.	.
.	.	16c#	.	.
.	.	16eJJ	.	.
8D	8V/V	16BLL	.	4dd#
.	.	16f#	.	.
8D	8V42/V	16A	.	.
.	.	16f#JJ	.	.
=	=	=162	=162	=162
4.D	4.V6	16G#LL	2r	4ee')
.	.	16B	.	.
.	.	16F#	.	.
.	.	16BJJ	.	.
.	.	16G#LL	.	8r
.	.	16B	.	.
8D	8V	16E	.	(8b
.	.	16BJJ	.	.
=	=	=163	=163	=163
4D	4I	16ALL	2r	4cc#
.	.	16e	.	.
.	.	16c#	.	.
.	.	16eJJ	.	.
8D	8V/V	16BLL	.	8ddL
.	.	16f#	.	.
8D	8V42/V	16A	.	8dd#J
.	.	16f#JJ	.	.
=	=	=164	=164	=164
4.D	4.V6	16G#LL	2r	8.eeL
.	.	16B	.	.
.	.	16F#	.	.
.	.	16BJJ	.	16ff#Jk)
.	.	16ELL	.	8gg#'L
.	.	16B	.	.
8D	8V	16G#	.	8b'J
.	.	16BJJ	.	.
=	=	=165	=165	=165
4D	4I	16ALL	2r	(4cc#
.	.	16e	.	.
.	.	16c#	.	.
.	.	16eJJ	.	.
8D	8V/V	16BLL	.	4dd#
.	.	16f#	.	.
8D	8V42/V	16A	.	.
.	.	16f#JJ	.	.
=	=	=166	=166	=166
4.D	4.V6	16G#LL	2r	4ee')
.	.	16B	.	.
.	.	16F#	.	.
.	.	16BJJ	.	.
.	.	16G#LL	.	8r
.	.	16B	.	.
8D	8V	16E	.	(8b
.	.	16BJJ	.	.
=	=	=167	=167	=167
4D	4I	16ALL	2r	4cc#
.	.	16e	.	.
.	.	16c#	.	.
.	.	16eJJ	.	.
8D	8V/V	16BLL	.	8ddL
.	.	16f#	.	.
8D	8V42/V	16A	.	8dd#J
.	.	16f#JJ	.	.
=	=	=168	=168	=168
8D	8V	16G#LL	2r	4ee
.	.	16B	.	.
8D	8V6	16E	.	.
.	.	16BJJ	.	.
4D	4V65/V	16D#LL	.	16gg#LL
.	.	16B	.	16ff#
.	.	16A	.	16ee
.	.	16BJJ	.	16ff#JJ
=	=	=169	=169	=169
4D	4V	16ELL	2r	16aaLL
.	.	16B	.	16gg#
.	.	16G#	.	16bb
.	.	16BJJ	.	16eeJJ)
4D	4V/V	16BBLL	.	(16eeLL
.	.	16B	.	16dd#
.	.	16F#	.	16ff#
.	.	16BJJ	.	16bJJ)
=	=	=170	=170	=170
2D	2V/V	2r;	2r;	2r;
=	=	=171	=171	=171
2D	2V	8r	2r	[2ee
.	.	(8E	.	.
.	.	8G#L	.	.
.	.	8BJ	.	.
=	=	=172	=172	=172
*-	*-	*-	*-	*-
